dist/img/no_sim.svg

<svg width="41" height="41" viewBox="0 0 41 41" fill="none" xmlns="http://www.w3.org/2000/svg">
<path d="M34.423 30.8354L31.5188 27.9312V6.06458H18.2792L13.9657 10.3781L11.8303 8.24271L16.9553 3.16042H34.423V30.8354ZM36.4303 40.2312L10.4636 14.2219L9.48133 15.2042V34.9354H31.5188V31.5615L34.423 34.4656V37.8396H6.57716V13.7521L8.2855 12.0865L1.49487 5.29583L3.37404 3.41667L38.3095 38.3521L36.4303 40.2312Z" fill="#00E0FF"/>
</svg>

<svg width="41" height="41" fill="none" xmlns="http://www.w3.org/2000/svg"><path d="m34.423 30.835-2.904-2.904V6.065h-13.24l-4.313 4.313-2.136-2.135 5.125-5.083h17.468v27.675Zm2.007 9.396-25.966-26.01-.983.983v19.731H31.52v-3.374l2.904 2.905v3.374H6.577V13.752l1.709-1.666-6.791-6.79 1.879-1.88 34.935 34.936-1.879 1.88Z" fill="#00E0FF"/></svg>
